X: 2
T: The Chanter
R: jig
M: 6/8
L: 1/8
K: Dmaj
|:b|afd dcd|ecA A2 b|afd dB/c/d|gfg b2 g|
afd d2 d|ecA A2 d|BAG FdB|AFD D2:|
G|FDF AFD|GFG BAG|FDF AFD|E=cA A^G=G|
FD/E/F A2 D|GFG B2 G|FdB AFE|FD/D/D D2 G|
F2 F AF/E/D|G2 G BAG|FD/E/F dfa|ge/e/e e2 G|
FAd GB/c/d|fed b2 g|abf e^de|fdc d2||

